dist/assets/img/social/twitter.svg

<svg width="27" height="23" viewBox="0 0 27 23" fill="none" xmlns="http://www.w3.org/2000/svg">
<path d="M27 3.12831C25.9959 3.56875 24.9261 3.86069 23.8106 4.00244C24.9581 3.31731 25.8339 2.24069 26.2457 0.943C25.1758 1.58087 23.9946 2.03144 22.7357 2.28288C21.7198 1.20119 20.2719 0.53125 18.6924 0.53125C15.6279 0.53125 13.1608 3.01863 13.1608 6.06794C13.1608 6.50669 13.1979 6.92856 13.2891 7.33019C8.68725 7.10575 4.61531 4.90019 1.87987 1.54038C1.40231 2.36894 1.12219 3.31731 1.12219 4.33825C1.12219 6.25525 2.10938 7.95456 3.58087 8.93837C2.69156 8.9215 1.81912 8.66331 1.08 8.25663C1.08 8.2735 1.08 8.29544 1.08 8.31737C1.08 11.0072 2.99869 13.2415 5.51475 13.7562C5.06419 13.8794 4.57312 13.9384 4.0635 13.9384C3.70913 13.9384 3.35137 13.9182 3.01556 13.8439C3.73275 16.036 5.76788 17.6476 8.18775 17.6999C6.3045 19.1731 3.91331 20.0607 1.32469 20.0607C0.87075 20.0607 0.435375 20.0404 0 19.9847C2.45194 21.5659 5.35781 22.4688 8.4915 22.4688C18.6772 22.4688 24.246 14.0312 24.246 6.71762C24.246 6.47294 24.2376 6.23669 24.2257 6.00213C25.3243 5.2225 26.2474 4.24881 27 3.12831Z" fill="#656565"/>
</svg>

<svg width="27" height="23" viewBox="0 0 27 23" fill="none" xmlns="http://www.w3.org/2000/svg"><path d="M27 3.128a11.54 11.54 0 01-3.19.874A5.504 5.504 0 0026.247.943a11.062 11.062 0 01-3.51 1.34 5.534 5.534 0 00-9.575 3.785c0 .439.037.86.128 1.262C8.687 7.106 4.615 4.9 1.88 1.54a5.573 5.573 0 00-.757 2.798 5.54 5.54 0 002.459 4.6 5.466 5.466 0 01-2.501-.681v.06a5.56 5.56 0 004.435 5.44c-.45.122-.942.181-1.451.181-.355 0-.713-.02-1.048-.094.717 2.192 2.752 3.804 5.172 3.856a11.122 11.122 0 01-6.863 2.36c-.454 0-.89-.02-1.325-.075a15.583 15.583 0 008.492 2.484c10.185 0 15.754-8.438 15.754-15.751 0-.245-.008-.481-.02-.716A11.042 11.042 0 0027 3.128z" fill="#656565"/></svg>
